X:423
T: Yidui xiaoyiangqe
N: C2041
O: China,Anhui Guangde
S: III, 529]
R: Haozi]
M: 2/4
L: 1/16
K: C
E2EDE2C2 | D8 | DEDCC8
C2C2C2C2 | D8 | DEDCC8
C2DEC2DE | DCCA,G,4 |
D2E2D2E2 | DEDCDEDCA,4 | C2DED2C2 | A,G,CA,G,4 |
DDEDC4 | D2EDC4 |
E2EDC2C2 | D8 | DEDCC8
C2DEDCCA, | G,6A,2 | G,4z4

@@@ Tune index: 6978
